X:1928
T:Bourre patine
R:Bourre  3 temps
A:Morvan
O:France
M:3/4
L:1/8
Q:1/4=210
K:C
c2|A2 B2 c2|d4de|f2 gf ed|e2c2c2|A2 B2 c2|d4de|f2 gf ed|1c4:|2c4 ef|
|:g2g2c'2|g4ef|ga gf ed|1e2 c2 ef:|2c2 z2 c2||
